X:1
T:Putting Down the Nets
C:T. S. Macdonald
L:1/4
M:C|
K:G
D G2 D | B, D G, B | c>B A G | F A A B, | D G2 D | B, D G B | c/B/A/G/ F d | B G G B, |
D G2 D | B, D G, B | c>B A G | F/G/A/F/ D/E/D/B,/ | D G2 D | B, D G B | c/B/A/G/ F/A/d/c/ | B/A/G/F/ G/A/B/c/ ||
d g2 a | b/a/g/f/ g>d | e/d/c/B/ c/B/A/G/ | F/G/A/F/ D/A/B/c/ | d g2 a | b/a/g/f/ g>d | c/B/A/G/ F/A/d/c/ | B/A/G/F/ G A//B//c/ |
d g2 a | b/a/g/f/ g>d | e/d/c/B/ c/B/A/G/ | F/G/A/F/ D/E/D/B,/ | D G2 D | B, D G B | c/B/A/G/ F d | B G G2 |]

